X:1
T:Bachianas Brasileiras N°5
T:I Aroa (cantilena)
T:Heitor Villa-Lobos
%%score 1 2
L:1/8
Q:1/4=66
M:5/4
K:C
V:1 treble-8 nm="Guitar" snm="Guit."
V:2 treble-8 nm="Guitarra acústica" snm="Guit."
V:1
"^Adagio" z10 | z10 | c8- ce | dcdFE d3- d/c/B/c/ |[M:3/4] A6 |[M:6/4] g4- g _b2 a3- a/g/e/f/ | %6
 d4- d ^f2 _e2 d- d/c/A/c/ |[M:4/4] _B4- B/cd/ c_B | A/G/ A3- A/_Bc/ d/c/_B/A/ | G4- G/A_B/ AG | %10
 F/E/ F3- F/GA/ =B/A/G/F/ | (3EDE- E2- EF/G/ F/G/A/B/ | c/B/ A3- (3ABA (3^GAB | %13
[M:6/4] A/B/^c- c4 g/^c/ g3- g/f/e/f/ |[M:5/4] d4- d3/2d/4e/4 f2- f/e/d/f/ | %15
[M:4/4] e7/2 c/4d/4 e2- e/d/c/e/ | d7/2 B/4c/4 d2- d/c/B/d/ | c7/2 A/4B/4 c2- c/B/d/c/ | %18
 c/B/ A3- (3ABA (3^GAB |[M:6/4] B4 A4- !fermata!A2 z2 | z12 | z12 | z12 | z12 | z12 | z12 | z12 | %27
 z12 | z12 | z12 | z12 | z12 |] %32
V:2
 A,/-[A,-F]/[A,-G]/[A,A]/ [G,-B]/[G,-E]/[G,-F]/[G,G]/ [E,-A]/[E,-D]/[E,-E]/[E,F]/ [E,-G]/[E,-c]/[E,-B]/[E,A]/ [F,-A]/[F,B]/[E,-A]/[E,^G]/ | %1
 A,/-[A,-F]/[A,-G]/[A,A]/ [G,-B]/[G,-E]/[G,-F]/[G,G]/ [E,-A]/[E,-D]/[E,-E]/[E,F]/ [E,-G]/[E,-c]/[E,-B]/[E,A]/ [F,-A]/[F,B]/[E,-A]/[E,^G]/ | %2
 A,/-[A,-E]/[A,-c]/[A,A]/ E/-[E-A]/[E-f]/[Ee]/ A/-[A-c]/[A-a]/[Ag]/ [^G-f]/[G-e]/[G-d]/[Gc]/ A/-[A-e]/[A-c]/[AB]/ | %3
 F/-[F-d]/[F-e]/[Ff]/ B/-[B-g]/[B-f]/[Be]/ ^G/-[G-f]/[G-e]/[Gd]/ B,/-[B,-e]/[B,-d]/[B,c]/ E/-[E-G]/[E-f]/[Ee]/ | %4
[M:3/4] A,/-[A,Ace]/-[A,-Ace]/[A,Ace]/ A/-[A^ce]/-[A-ce]/[Ace]/ G/-[Gce]/-[G-ce]/[Gce]/ | %5
[M:6/4] E/-[EA^ce]/-[E-Ace]/[EAce]/ ^C/-[CAce]/-[C-Ace]/[CAce]/ A,/-[A,Ace]/-[A,-Ace]/[A,Ace]/ C/-[CAce]/-[C-Ace]/[CAce]/ A/-[Ace]/-[A-ce]/[Ace]/ A/-[Ace]/-[A-ce]/[Ace]/ | %6
 D/-[Dd^fa]/-[D-dfa]/[Ddfa]/ d/-[dfa]/-[d-fa]/[dfa]/ =c/-[cfa]/-[c-fa]/[cfa]/ B/-[Bfa]/-[B-fa]/[B=fa]/ ^F/-[FABa]/-[F-ABa]/[FABa]/ D/-[DABa]/-[D-ABa]/[DABa]/ | %7
[M:4/4] G/-[G-_B]/[G-g]/[Gd]/ F/-[F-B]/[F-g]/[FB]/ E/-[E-B]/[E-g]/[EB]/ C/-[C-B]/[C-g]/[CB]/ | %8
 F/-[F-A]/[F-f]/[Fd]/ E/-[E-A]/[E-f]/[E^c]/ D/-[D-_B]/[D-f]/[De]/ _B,/-[B,-G]/[B,-f]/[B,d]/ | %9
 E/-[E-_B]/[E-g]/[E^c]/ D/-[D-B]/[D-g]/[DB]/ ^C/-[C-A]/[C-g]/[CB]/ A,/-[A,-G]/[A,-g]/[A,c]/ | %10
 D/-[D-A]/[D-f]/[Dd]/ C/-[C-A]/[C-f]/[Cd]/ B,/-[B,-G]/[B,-f]/[B,d]/ G,/-[G,-G]/[G,-f]/[G,B]/ | %11
 C/-[C-G]/[C-e]/[Cc]/ B,/-[B,-^G]/[B,-e]/[B,c]/ A,/-[A,-A]/[A,-f]/[A,^c]/ D/-[D-A]/[D-f]/[Dd]/ | %12
 [E,E]/-[E,-E-A]/[E,Ee]/[G,Gc]/ [F,F]/-[F,-F-A]/[F,Fd]/[D=B]/ [E,E]/-[E,-E-A]/[E,-E-d]/[E,EB]/ [E,E]/-[E,-E-^G]/[E,-E-f]/[E,Ed]/ | %13
[M:6/4] A,/-[A,-G]/[A,-e]/[A,^c]/ A/-[A-c]/[A-a]/[Ae]/ G/-[G-c]/[G-a]/[Ge]/ E/-[E-A]/[E-g]/[Ec]/ ^C/[CA]/[Cg]/[Ce]/ A,/[A,A]/[A,g]/[A,c]/ | %14
[M:5/4] D/-[D-A]/[D-a]/[Dd]/ D/-[D-A]/[D-g]/[Dd]/ C/-[C-D]/[C-A]/[CF]/ B,/-[B,-D]/[B,-A]/[B,F]/ A,/-[A,-B,]/[A,-F]/[A,D]/ | %15
[M:4/4] C/-[C-D]/[C-c]/[CG]/ B,/-[B,-E]/[B,-d]/[B,^G]/ A,/-[A,-E]/[A,-c]/[A,A]/ G,/-[G,-D]/[G,-d]/[G,A]/ | %16
 [A,A]/-[A,-A-c]/[A,-A-a]/[A,Ae]/ G/-[G-c]/[G-a]/[Ge]/ F/-[F-c]/[F-a]/[Fd]/ D/-[D-B]/[D-a]/[Df]/ | %17
 B,/-[B,-F]/[B,-d]/[B,A]/ A,/-[A,-D]/[A,-A]/[A,F]/ ^G,/-[G,-D]/[G,-B]/[G,^G]/ [E,E]/-[E,-DE-]/[E,-E-G]/[E,EF]/ | %18
 [E,E]/-[E,-E-c]/[E,-E-a]/[E,Ee]/ [F,E]/-[F,-E-B]/[F,-E-a]/[F,Ed]/ [E,E]/-[E,-E-c]/[E,-E-a]/[E,Ee]/ [E,E]/-[E,-E-d]/[E,-E-^g]/[E,Ef]/ | %19
[M:6/4] A,/e/d/c/ B/A/^G/A/ A,/C/=G/F/ E/D/C/B,/ A,2 z2 | z12 | z12 | z12 | z12 | z12 | z12 | z12 | %27
 z12 | z12 | z12 | z12 | z12 |] %32

